packages/product-components/src/images/networks/pol.svg

<svg width="32" height="32" viewBox="0 0 32 32" fill="none" xmlns="http://www.w3.org/2000/svg">
<style>
@media (prefers-color-scheme: dark) {
    .background {
        fill: #F6F6F6;
    }
    .foreground {
        fill: #1F1F1F;
    }
}
</style>
<path class="background" d="M0 8C0 3.58172 3.58172 0 8 0H24C28.4183 0 32 3.58172 32 8V24C32 28.4183 28.4183 32 24 32H8C3.58172 32 0 28.4183 0 24V8Z" fill="#1F1F1F"/>
<path class="foreground" d="M20.8007 12.8599C20.4596 12.6649 20.0209 12.6649 19.631 12.8599L16.9017 14.4682L15.0496 15.4917L12.369 17.1001C12.0279 17.295 11.5892 17.295 11.1993 17.1001L9.10359 15.8329C8.76242 15.6379 8.51873 15.248 8.51873 14.8094V12.3725C8.51873 11.9826 8.71368 11.5927 9.10359 11.349L11.1993 10.1305C11.5405 9.93559 11.9791 9.93559 12.369 10.1305L14.4648 11.3977C14.8059 11.5927 15.0496 11.9826 15.0496 12.4212V14.0296L16.9017 12.9574V11.3003C16.9017 10.9104 16.7067 10.5205 16.3168 10.2768L12.4178 7.98607C12.0766 7.79112 11.638 7.79112 11.2481 7.98607L7.25154 10.3255C6.86164 10.5205 6.66669 10.9104 6.66669 11.3003V15.8816C6.66669 16.2715 6.86164 16.6614 7.25154 16.9051L11.1993 19.1958C11.5405 19.3908 11.9791 19.3908 12.369 19.1958L15.0496 17.6362L16.9017 16.564L19.5823 15.0044C19.9234 14.8094 20.3621 14.8094 20.752 15.0044L22.8477 16.2228C23.1889 16.4178 23.4326 16.8077 23.4326 17.2463V19.6832C23.4326 20.0731 23.2376 20.463 22.8477 20.7067L20.8007 21.9252C20.4596 22.1201 20.0209 22.1201 19.631 21.9252L17.5353 20.7067C17.1941 20.5117 16.9504 20.1218 16.9504 19.6832V18.1236L15.0984 19.1958V20.8042C15.0984 21.1941 15.2933 21.584 15.6832 21.8277L19.631 24.1184C19.9722 24.3133 20.4108 24.3133 20.8007 24.1184L24.7485 21.8277C25.0897 21.6327 25.3334 21.2428 25.3334 20.8042V16.1741C25.3334 15.7842 25.1384 15.3943 24.7485 15.1506L20.8007 12.8599Z" fill="#F6F6F6"/>
</svg>

<svg xmlns="http://www.w3.org/2000/svg" width="32" height="32" viewBox="0 0 32 32" fill="none">
    <path class="bg" fill="#1F1F1F" d="M0 8a8 8 0 0 1 8-8h16a8 8 0 0 1 8 8v16a8 8 0 0 1-8 8H8a8 8 0 0 1-8-8z"/>
    <path class="fg" fill="#F6F6F6" d="M20.8 12.86c-.34-.195-.78-.195-1.169 0l-2.73 1.608-1.851 1.024-2.681 1.608c-.341.195-.78.195-1.17 0l-2.095-1.267a1.19 1.19 0 0 1-.585-1.024v-2.436c0-.39.195-.78.585-1.024l2.095-1.219c.341-.194.78-.194 1.17 0l2.096 1.268c.34.195.585.585.585 1.023v1.609l1.852-1.073V11.3a1.2 1.2 0 0 0-.585-1.023l-3.9-2.29c-.34-.196-.779-.196-1.169 0l-3.996 2.339a1.07 1.07 0 0 0-.585.974v4.582c0 .39.195.78.585 1.023l3.947 2.29c.341.196.78.196 1.17 0l2.68-1.559 1.853-1.072 2.68-1.56c.341-.195.78-.195 1.17 0l2.096 1.219c.34.195.585.585.585 1.023v2.437c0 .39-.195.78-.585 1.024L20.8 21.925c-.341.195-.78.195-1.17 0l-2.096-1.218a1.19 1.19 0 0 1-.585-1.024v-1.56l-1.852 1.073v1.608c0 .39.195.78.585 1.024l3.948 2.29c.341.195.78.195 1.17 0l3.948-2.29a1.19 1.19 0 0 0 .584-1.024v-4.63c0-.39-.195-.78-.584-1.023z"/>
</svg>
